bernoullicharts/arcsin_x_2_bits.svg

<?xml version="1.0" encoding="utf-8" standalone="no"?>
<!DOCTYPE svg PUBLIC "-//W3C//DTD SVG 1.1//EN"
  "http://www.w3.org/Graphics/SVG/1.1/DTD/svg11.dtd">
<!-- Created with matplotlib (https://matplotlib.org/) -->
<svg height="345.6pt" version="1.1" viewBox="0 0 460.8 345.6" width="460.8pt" xmlns="http://www.w3.org/2000/svg" xmlns:xlink="http://www.w3.org/1999/xlink">
 <defs>
  <style type="text/css">
*{stroke-linecap:butt;stroke-linejoin:round;}
  </style>
 </defs>
 <g id="figure_1">
  <g id="patch_1">
   <path d="M 0 345.6 
L 460.8 345.6 
L 460.8 0 
L 0 0 
z
" style="fill:#ffffff;"/>
  </g>
  <g id="axes_1">
   <g id="patch_2">
    <path d="M 57.6 307.584 
L 414.72 307.584 
L 414.72 41.472 
L 57.6 41.472 
z
" style="fill:#ffffff;"/>
   </g>
   <g id="matplotlib.axis_1">
    <g id="xtick_1">
     <g id="line2d_1">
      <defs>
       <path d="M 0 0 
L 0 3.5 
" id="mac5363f82a" style="stroke:#000000;stroke-width:0.8;"/>
      </defs>
      <g>
       <use style="stroke:#000000;stroke-width:0.8;" x="73.800255" xlink:href="#mac5363f82a" y="307.584"/>
      </g>
     </g>
     <g id="text_1">
      <text style="font-family:DejaVu Sans;font-size:10px;font-style:normal;font-weight:normal;text-anchor:middle;" transform="rotate(-0, 73.800255, 322.182437)" x="73.800255" y="322.182437">0.0</text>
     </g>
    </g>
    <g id="xtick_2">
     <g id="line2d_2">
      <g>
       <use style="stroke:#000000;stroke-width:0.8;" x="138.744153" xlink:href="#mac5363f82a" y="307.584"/>
      </g>
     </g>
     <g id="text_2">
      <text style="font-family:DejaVu Sans;font-size:10px;font-style:normal;font-weight:normal;text-anchor:middle;" transform="rotate(-0, 138.744153, 322.182437)" x="138.744153" y="322.182437">0.2</text>
     </g>
    </g>
    <g id="xtick_3">
     <g id="line2d_3">
      <g>
       <use style="stroke:#000000;stroke-width:0.8;" x="203.688051" xlink:href="#mac5363f82a" y="307.584"/>
      </g>
     </g>
     <g id="text_3">
      <text style="font-family:DejaVu Sans;font-size:10px;font-style:normal;font-weight:normal;text-anchor:middle;" transform="rotate(-0, 203.688051, 322.182437)" x="203.688051" y="322.182437">0.4</text>
     </g>
    </g>
    <g id="xtick_4">
     <g id="line2d_4">
      <g>
       <use style="stroke:#000000;stroke-width:0.8;" x="268.631949" xlink:href="#mac5363f82a" y="307.584"/>
      </g>
     </g>
     <g id="text_4">
      <text style="font-family:DejaVu Sans;font-size:10px;font-style:normal;font-weight:normal;text-anchor:middle;" transform="rotate(-0, 268.631949, 322.182437)" x="268.631949" y="322.182437">0.6</text>
     </g>
    </g>
    <g id="xtick_5">
     <g id="line2d_5">
      <g>
       <use style="stroke:#000000;stroke-width:0.8;" x="333.575847" xlink:href="#mac5363f82a" y="307.584"/>
      </g>
     </g>
     <g id="text_5">
      <text style="font-family:DejaVu Sans;font-size:10px;font-style:normal;font-weight:normal;text-anchor:middle;" transform="rotate(-0, 333.575847, 322.182437)" x="333.575847" y="322.182437">0.8</text>
     </g>
    </g>
    <g id="xtick_6">
     <g id="line2d_6">
      <g>
       <use style="stroke:#000000;stroke-width:0.8;" x="398.519745" xlink:href="#mac5363f82a" y="307.584"/>
      </g>
     </g>
     <g id="text_6">
      <text style="font-family:DejaVu Sans;font-size:10px;font-style:normal;font-weight:normal;text-anchor:middle;" transform="rotate(-0, 398.519745, 322.182437)" x="398.519745" y="322.182437">1.0</text>
     </g>
    </g>
    <g id="text_7">
     <text style="font-family:DejaVu Sans;font-size:10px;font-style:normal;font-weight:normal;text-anchor:middle;" transform="rotate(-0, 236.16, 335.860562)" x="236.16" y="335.860562">Probability</text>
    </g>
   </g>
   <g id="matplotlib.axis_2">
    <g id="ytick_1">
     <g id="line2d_7">
      <defs>
       <path d="M 0 0 
L -3.5 0 
" id="meac0f75a5a" style="stroke:#000000;stroke-width:0.8;"/>
      </defs>
      <g>
       <use style="stroke:#000000;stroke-width:0.8;" x="57.6" xlink:href="#meac0f75a5a" y="305.426113"/>
      </g>
     </g>
     <g id="text_8">
      <text style="font-family:DejaVu Sans;font-size:10px;font-style:normal;font-weight:normal;text-anchor:end;" transform="rotate(-0, 50.6, 309.225332)" x="50.6" y="309.225332">0</text>
     </g>
    </g>
    <g id="ytick_2">
     <g id="line2d_8">
      <g>
       <use style="stroke:#000000;stroke-width:0.8;" x="57.6" xlink:href="#meac0f75a5a" y="258.829557"/>
      </g>
     </g>
     <g id="text_9">
      <text style="font-family:DejaVu Sans;font-size:10px;font-style:normal;font-weight:normal;text-anchor:end;" transform="rotate(-0, 50.6, 262.628776)" x="50.6" y="262.628776">50</text>
     </g>
    </g>
    <g id="ytick_3">
     <g id="line2d_9">
      <g>
       <use style="stroke:#000000;stroke-width:0.8;" x="57.6" xlink:href="#meac0f75a5a" y="212.233001"/>
      </g>
     </g>
     <g id="text_10">
      <text style="font-family:DejaVu Sans;font-size:10px;font-style:normal;font-weight:normal;text-anchor:end;" transform="rotate(-0, 50.6, 216.03222)" x="50.6" y="216.03222">100</text>
     </g>
    </g>
    <g id="ytick_4">
     <g id="line2d_10">
      <g>
       <use style="stroke:#000000;stroke-width:0.8;" x="57.6" xlink:href="#meac0f75a5a" y="165.636445"/>
      </g>
     </g>
     <g id="text_11">
      <text style="font-family:DejaVu Sans;font-size:10px;font-style:normal;font-weight:normal;text-anchor:end;" transform="rotate(-0, 50.6, 169.435664)" x="50.6" y="169.435664">150</text>
     </g>
    </g>
    <g id="ytick_5">
     <g id="line2d_11">
      <g>
       <use style="stroke:#000000;stroke-width:0.8;" x="57.6" xlink:href="#meac0f75a5a" y="119.039889"/>
      </g>
     </g>
     <g id="text_12">
      <text style="font-family:DejaVu Sans;font-size:10px;font-style:normal;font-weight:normal;text-anchor:end;" transform="rotate(-0, 50.6, 122.839108)" x="50.6" y="122.839108">200</text>
     </g>
    </g>
    <g id="ytick_6">
     <g id="line2d_12">
      <g>
       <use style="stroke:#000000;stroke-width:0.8;" x="57.6" xlink:href="#meac0f75a5a" y="72.443333"/>
      </g>
     </g>
     <g id="text_13">
      <text style="font-family:DejaVu Sans;font-size:10px;font-style:normal;font-weight:normal;text-anchor:end;" transform="rotate(-0, 50.6, 76.242552)" x="50.6" y="76.242552">250</text>
     </g>
    </g>
    <g id="text_14">
     <text style="font-family:DejaVu Sans;font-size:10px;font-style:normal;font-weight:normal;text-anchor:middle;" transform="rotate(-90, 25.432812, 174.528)" x="25.432812" y="174.528">Average Bits Consumed Per Call</text>
    </g>
   </g>
   <g id="line2d_13">
    <path clip-path="url(#p41be35728b)" d="M 73.832727 294.334269 
L 77.112066 294.589618 
L 80.391405 294.503881 
L 83.670744 295.344483 
L 86.950083 294.336133 
L 90.229421 294.86547 
L 93.50876 295.061176 
L 96.788099 294.162794 
L 100.067438 294.582163 
L 103.346777 294.34918 
L 106.626116 295.076086 
L 109.905455 294.986621 
L 113.184793 294.641807 
L 116.464132 295.010851 
L 119.743471 294.859878 
L 123.02281 294.697722 
L 126.302149 294.399504 
L 129.581488 294.796507 
L 132.860826 294.874789 
L 136.140165 294.682812 
L 139.419504 295.202829 
L 142.698843 294.871062 
L 145.978182 294.940025 
L 149.257521 294.397641 
L 152.53686 295.07795 
L 155.816198 295.020171 
L 159.095537 294.789052 
L 162.374876 294.479651 
L 165.654215 294.660445 
L 168.933554 295.417173 
L 172.212893 294.246668 
L 175.492231 294.735 
L 178.77157 295.180463 
L 182.050909 294.97171 
L 185.330248 295.486136 
L 188.609587 295.370577 
L 191.888926 295.338891 
L 195.168264 295.488 
L 198.447603 294.895292 
L 201.726942 294.828193 
L 205.006281 295.171143 
L 208.28562 295.049992 
L 211.564959 294.900883 
L 214.844298 294.774141 
L 218.123636 295.023898 
L 221.402975 294.954935 
L 224.682314 294.904611 
L 227.961653 294.820737 
L 231.240992 294.839376 
L 234.520331 295.128275 
L 237.799669 295.178599 
L 241.079008 294.503881 
L 244.358347 294.606393 
L 247.637686 294.574708 
L 250.917025 295.200965 
L 254.196364 295.074223 
L 257.475702 294.18516 
L 260.755041 294.718225 
L 264.03438 294.237348 
L 267.313719 294.306311 
L 270.593058 295.197237 
L 273.872397 294.787188 
L 277.151736 294.34918 
L 280.431074 294.902747 
L 283.710413 294.679084 
L 286.989752 294.483378 
L 290.269091 294.149747 
L 293.54843 294.132972 
L 296.827769 294.313767 
L 300.107107 294.377138 
L 303.386446 294.019277 
L 306.665785 294.071465 
L 309.945124 294.250395 
L 313.224463 293.640913 
L 316.503802 293.154444 
L 319.78314 293.66887 
L 323.062479 293.66887 
L 326.341818 293.523489 
L 329.621157 293.534672 
L 332.900496 293.32592 
L 336.179835 293.558903 
L 339.459174 293.527217 
L 342.738512 293.458254 
L 346.017851 293.018383 
L 349.29719 292.341801 
L 352.576529 292.343664 
L 355.855868 292.228105 
L 359.135207 291.846013 
L 362.414545 291.417325 
L 365.693884 290.979317 
L 368.973223 290.634503 
L 372.252562 289.540416 
L 375.531901 289.985879 
L 378.81124 288.284172 
L 382.090579 288.617804 
L 385.369917 287.423068 
L 388.649256 284.701829 
L 391.928595 283.978651 
L 395.207934 281.479211 
L 398.487273 53.568 
" style="fill:none;stroke:#1f77b4;stroke-linecap:square;stroke-width:1.5;"/>
   </g>
   <g id="patch_3">
    <path d="M 57.6 307.584 
L 57.6 41.472 
" style="fill:none;stroke:#000000;stroke-linecap:square;stroke-linejoin:miter;stroke-width:0.8;"/>
   </g>
   <g id="patch_4">
    <path d="M 414.72 307.584 
L 414.72 41.472 
" style="fill:none;stroke:#000000;stroke-linecap:square;stroke-linejoin:miter;stroke-width:0.8;"/>
   </g>
   <g id="patch_5">
    <path d="M 57.6 307.584 
L 414.72 307.584 
" style="fill:none;stroke:#000000;stroke-linecap:square;stroke-linejoin:miter;stroke-width:0.8;"/>
   </g>
   <g id="patch_6">
    <path d="M 57.6 41.472 
L 414.72 41.472 
" style="fill:none;stroke:#000000;stroke-linecap:square;stroke-linejoin:miter;stroke-width:0.8;"/>
   </g>
   <g id="text_15">
    <text style="font-family:DejaVu Sans;font-size:12px;font-style:normal;font-weight:normal;text-anchor:middle;" transform="rotate(-0, 236.16, 35.472)" x="236.16" y="35.472">Avg. Bits Consumed by arcsin(x)/2 Algorithm</text>
   </g>
   <g id="legend_1">
    <g id="patch_7">
     <path d="M 64.6 64.150125 
L 149.890625 64.150125 
Q 151.890625 64.150125 151.890625 62.150125 
L 151.890625 48.472 
Q 151.890625 46.472 149.890625 46.472 
L 64.6 46.472 
Q 62.6 46.472 62.6 48.472 
L 62.6 62.150125 
Q 62.6 64.150125 64.6 64.150125 
z
" style="fill:#ffffff;opacity:0.8;stroke:#cccccc;stroke-linejoin:miter;"/>
    </g>
    <g id="line2d_14">
     <path d="M 66.6 54.570438 
L 86.6 54.570438 
" style="fill:none;stroke:#1f77b4;stroke-linecap:square;stroke-width:1.5;"/>
    </g>
    <g id="line2d_15"/>
    <g id="text_16">
     <text style="font-family:DejaVu Sans;font-size:10px;font-style:normal;font-weight:normal;text-anchor:start;" transform="rotate(-0, 94.6, 58.070438)" x="94.6" y="58.070438">arcsin(x)/2</text>
    </g>
   </g>
  </g>
 </g>
 <defs>
  <clipPath id="p41be35728b">
   <rect height="266.112" width="357.12" x="57.6" y="41.472"/>
  </clipPath>
 </defs>
</svg>

<svg height="460.8" viewBox="0 0 460.8 345.6" width="614.4" xmlns="http://www.w3.org/2000/svg" xmlns:xlink="http://www.w3.org/1999/xlink"><defs><style>*{stroke-linecap:butt;stroke-linejoin:round}</style></defs><g id="figure_1"><path d="M0 345.6h460.8V0H0z" fill="#fff" id="patch_1"/><g id="axes_1"><path d="M57.6 307.584h357.12V41.472H57.6z" fill="#fff" id="patch_2"/><g id="matplotlib.axis_1"><g id="xtick_1"><g id="line2d_1"><defs><path d="M0 0v3.5" id="mac5363f82a" stroke="#000" stroke-width=".8"/></defs><use x="73.8" xlink:href="#mac5363f82a" y="307.584" stroke="#000" stroke-width=".8"/></g><text x="73.8" y="322.182" font-family="DejaVu Sans" font-size="10" font-weight="400" text-anchor="middle" id="text_1">0.0</text></g><g id="xtick_2"><use x="138.744" xlink:href="#mac5363f82a" y="307.584" stroke="#000" stroke-width=".8" id="line2d_2"/><text x="138.744" y="322.182" font-family="DejaVu Sans" font-size="10" font-weight="400" text-anchor="middle" id="text_2">0.2</text></g><g id="xtick_3"><use x="203.688" xlink:href="#mac5363f82a" y="307.584" stroke="#000" stroke-width=".8" id="line2d_3"/><text x="203.688" y="322.182" font-family="DejaVu Sans" font-size="10" font-weight="400" text-anchor="middle" id="text_3">0.4</text></g><g id="xtick_4"><use x="268.632" xlink:href="#mac5363f82a" y="307.584" stroke="#000" stroke-width=".8" id="line2d_4"/><text x="268.632" y="322.182" font-family="DejaVu Sans" font-size="10" font-weight="400" text-anchor="middle" id="text_4">0.6</text></g><g id="xtick_5"><use x="333.576" xlink:href="#mac5363f82a" y="307.584" stroke="#000" stroke-width=".8" id="line2d_5"/><text x="333.576" y="322.182" font-family="DejaVu Sans" font-size="10" font-weight="400" text-anchor="middle" id="text_5">0.8</text></g><g id="xtick_6"><use x="398.52" xlink:href="#mac5363f82a" y="307.584" stroke="#000" stroke-width=".8" id="line2d_6"/><text x="398.52" y="322.182" font-family="DejaVu Sans" font-size="10" font-weight="400" text-anchor="middle" id="text_6">1.0</text></g><text x="236.16" y="335.861" font-family="DejaVu Sans" font-size="10" font-weight="400" text-anchor="middle" id="text_7">Probability</text></g><g id="matplotlib.axis_2"><g id="ytick_1"><g id="line2d_7"><defs><path d="M0 0h-3.5" id="meac0f75a5a" stroke="#000" stroke-width=".8"/></defs><use x="57.6" xlink:href="#meac0f75a5a" y="305.426" stroke="#000" stroke-width=".8"/></g><text x="50.6" y="309.225" font-family="DejaVu Sans" font-size="10" font-weight="400" text-anchor="end" id="text_8">0</text></g><g id="ytick_2"><use x="57.6" xlink:href="#meac0f75a5a" y="258.83" stroke="#000" stroke-width=".8" id="line2d_8"/><text x="50.6" y="262.629" font-family="DejaVu Sans" font-size="10" font-weight="400" text-anchor="end" id="text_9">50</text></g><g id="ytick_3"><use x="57.6" xlink:href="#meac0f75a5a" y="212.233" stroke="#000" stroke-width=".8" id="line2d_9"/><text x="50.6" y="216.032" font-family="DejaVu Sans" font-size="10" font-weight="400" text-anchor="end" id="text_10">100</text></g><g id="ytick_4"><use x="57.6" xlink:href="#meac0f75a5a" y="165.636" stroke="#000" stroke-width=".8" id="line2d_10"/><text x="50.6" y="169.436" font-family="DejaVu Sans" font-size="10" font-weight="400" text-anchor="end" id="text_11">150</text></g><g id="ytick_5"><use x="57.6" xlink:href="#meac0f75a5a" y="119.04" stroke="#000" stroke-width=".8" id="line2d_11"/><text x="50.6" y="122.839" font-family="DejaVu Sans" font-size="10" font-weight="400" text-anchor="end" id="text_12">200</text></g><g id="ytick_6"><use x="57.6" xlink:href="#meac0f75a5a" y="72.443" stroke="#000" stroke-width=".8" id="line2d_12"/><text x="50.6" y="76.243" font-family="DejaVu Sans" font-size="10" font-weight="400" text-anchor="end" id="text_13">250</text></g><text transform="rotate(-90 25.433 174.528)" x="25.433" y="174.528" font-family="DejaVu Sans" font-size="10" font-weight="400" text-anchor="middle" id="text_14">Average Bits Consumed Per Call</text></g><path clip-path="url(#p41be35728b)" d="M73.833 294.334l3.28.256 3.278-.086 3.28.84 3.28-1.008 3.278.53 3.28.195 3.28-.898 3.278.42 3.28-.234 3.28.727 3.278-.09 3.28-.344 3.28.369 3.278-.151 3.28-.162 3.28-.298 3.278.397 3.28.078 3.28-.192 3.279.52 3.279-.332 3.28.069 3.279-.542 3.279.68 3.28-.058 3.279-.23 3.279-.31 3.28.18 3.279.757 3.279-1.17 3.28.488 3.279.445 3.279-.208 3.28.514 3.279-.115 3.279-.032 3.28.149 3.279-.593 3.279-.067 3.28.343 3.279-.121 3.279-.15 3.28-.126 3.279.25 3.279-.07 3.28-.05 3.279-.083 3.279.018 3.28.29 3.279.05 3.279-.675 3.28.102 3.279-.031 3.279.626 3.28-.127 3.279-.889 3.279.533 3.28-.48 3.279.068 3.28.891 3.278-.41 3.28-.438 3.28.554 3.278-.224 3.28-.196 3.28-.333 3.278-.017 3.28.18 3.28.064 3.278-.358 3.28.052 3.28.18 3.278-.61 3.28-.487 3.28.515h3.278l3.28-.146 3.28.012 3.278-.21 3.28.234 3.28-.032 3.279-.069 3.279-.44 3.28-.676 3.279.002 3.279-.116 3.28-.382 3.279-.429 3.279-.438 3.28-.344 3.279-1.095 3.279.446 3.28-1.702 3.279.334 3.279-1.195 3.28-2.721 3.279-.723 3.279-2.5 3.28-227.911" fill="none" stroke="#1f77b4" stroke-linecap="square" stroke-width="1.5" id="line2d_13"/><path d="M57.6 307.584V41.472" fill="none" stroke="#000" stroke-linecap="square" stroke-width=".8" id="patch_3"/><path d="M414.72 307.584V41.472" fill="none" stroke="#000" stroke-linecap="square" stroke-width=".8" id="patch_4"/><path d="M57.6 307.584h357.12" fill="none" stroke="#000" stroke-linecap="square" stroke-width=".8" id="patch_5"/><path d="M57.6 41.472h357.12" fill="none" stroke="#000" stroke-linecap="square" stroke-width=".8" id="patch_6"/><text x="236.16" y="35.472" font-family="DejaVu Sans" font-size="12" font-weight="400" text-anchor="middle" id="text_15">Avg. Bits Consumed by arcsin(x)/2 Algorithm</text><g id="legend_1"><path d="M64.6 64.15h85.29q2 0 2-2V48.472q0-2-2-2H64.6q-2 0-2 2V62.15q0 2 2 2z" fill="#fff" opacity=".8" stroke="#ccc" id="patch_7"/><path d="M66.6 54.57h20" fill="none" stroke="#1f77b4" stroke-linecap="square" stroke-width="1.5" id="line2d_14"/><text x="94.6" y="58.07" font-family="DejaVu Sans" font-size="10" font-weight="400" id="text_16">arcsin(x)/2</text></g></g></g><defs><clipPath id="p41be35728b"><path d="M57.6 41.472h357.12v266.112H57.6z"/></clipPath></defs></svg>
